Numix-Circle/48x48/apps/vineyard-preferences.svg

<svg xmlns="http://www.w3.org/2000/svg" xmlns:xlink="http://www.w3.org/1999/xlink" width="48" viewBox="0 0 13.546667 13.546667" height="48">
 <defs>
  <linearGradient id="0">
   <stop stop-color="#dcdcdc"/>
   <stop offset="1" stop-color="#f5f5f5"/>
  </linearGradient>
  <linearGradient y2="268.33" x2="0" y1="279.1" gradientTransform="matrix(1.10528,0,0,1.10528,-134.28288,-295.76983)" gradientUnits="userSpaceOnUse" id="1" xlink:href="#0"/>
 </defs>
 <rect height="12.982" rx="6.491" y="0.282" x="0.282" width="12.982" opacity="0.5" fill="#ffffff" fill-rule="evenodd"/>
 <rect height="11.853" rx="5.926" y="0.847" x="0.847" width="11.853" fill="url(#1)" fill-rule="evenodd"/>
 <path d="M 32.40625 12 C 31.443892 12.016157 30.495265 12.655679 30.34375 13.84375 C 30.101324 15.744663 31.920455 15.03125 33.375 15.03125 C 34.829545 15.03125 35.301136 18.117951 34.9375 19.78125 C 34.720793 20.772486 33.24478 22.573386 30.25 23.03125 L 30.25 24.09375 C 31.258354 24.287 32 24.830886 32 25.5 C 32 26.169115 31.258354 26.713 30.25 26.90625 L 30.25 33.9375 C 34.272191 31.183611 37 26.10174 37 21.28125 C 37 20.471081 36.897154 19.674504 36.75 18.90625 C 36.616205 18.517989 36.504492 18.103095 36.40625 17.75 C 36.230148 17.117091 36.01424 16.590269 35.84375 16.09375 C 35.836309 16.077593 35.851191 16.048357 35.84375 16.03125 C 35.154882 14.531715 34.193793 13.187365 33 12.0625 C 32.99465 12.053004 32.9741 12.071996 32.96875 12.0625 C 32.7822 12.015927 32.598721 11.997149 32.40625 12 z M 16.28125 20.25 C 12.869509 20.476967 11.124647 22.534549 11 22.59375 C 11.452924 26.86787 14.072205 31.39319 17.75 33.9375 L 17.75 26.90625 C 16.741646 26.713 16 26.169115 16 25.5 C 16 24.830886 16.741646 24.287 17.75 24.09375 L 17.75 20.28125 C 17.234288 20.237237 16.737036 20.219679 16.28125 20.25 z M 19.25 20.53125 L 19.25 24.09375 C 20.258354 24.287 21 24.830886 21 25.5 C 21 26.169115 20.258354 26.713 19.25 26.90625 L 19.25 34.84375 C 20.498347 35.471196 21.850452 35.833976 23.25 35.9375 L 23.25 33.90625 C 22.241646 33.713 21.5 33.169115 21.5 32.5 C 21.5 31.830886 22.241646 31.287 23.25 31.09375 L 23.25 21.96875 C 22.834902 21.809614 22.408331 21.635103 21.96875 21.4375 C 20.994721 20.999645 20.092468 20.72191 19.25 20.53125 z M 24.75 22.46875 L 24.75 31.09375 C 25.758354 31.287 26.5 31.830886 26.5 32.5 C 26.5 33.169115 25.758354 33.713 24.75 33.90625 L 24.75 35.9375 C 26.161207 35.828558 27.494828 35.440252 28.75 34.8125 L 28.75 26.90625 C 27.741646 26.713 27 26.169115 27 25.5 C 27 24.830886 27.741646 24.287 28.75 24.09375 L 28.75 23.125 C 27.594122 23.120603 26.264631 22.9203 24.75 22.46875 z " transform="scale(0.28222223,0.28222223)" fill="#494f88"/>
 <path d="m 8.5778445,4.6610821 c 0,0.1111085 -0.091894,0.20118 -0.2052525,0.20118 -0.1133577,0 -0.2052525,-0.090071 -0.2052525,-0.20118 0,-0.1111088 0.091895,-0.20118 0.2052525,-0.20118 0.113358,0 0.2052525,0.090071 0.2052525,0.20118 z" fill="#434a8e"/>
 <path d="m 8.1673395,3.9318046 c 0,0.078702 -0.065092,0.1425025 -0.1453872,0.1425025 -0.080295,0 -0.1453872,-0.063801 -0.1453872,-0.1425025 0,-0.078702 0.065092,-0.1425025 0.1453872,-0.1425025 0.080295,0 0.1453872,0.063801 0.1453872,0.1425025 z" fill="#434a8e"/>
</svg>

<svg viewBox="0 0 48 48"><defs><linearGradient id="1" gradientUnits="userSpaceOnUse" y1="15" x2="0" y2="11" gradientTransform="matrix(15.333333,0,0,11.5,414.99999,-125.5)"><stop/><stop offset="1" stop-opacity="0"/></linearGradient><clipPath id="clipPath-525459602"><g transform="translate(0,-1004.3622)"><path d="m -24 13 c 0 1.105 -0.672 2 -1.5 2 -0.828 0 -1.5 -0.895 -1.5 -2 0 -1.105 0.672 -2 1.5 -2 0.828 0 1.5 0.895 1.5 2 z" transform="matrix(15.333333,0,0,11.5,414.99999,878.8622)" fill="#1890d0"/></g></clipPath><clipPath id="clipPath-531100061"><g transform="translate(0,-1004.3622)"><path d="m -24 13 c 0 1.105 -0.672 2 -1.5 2 -0.828 0 -1.5 -0.895 -1.5 -2 0 -1.105 0.672 -2 1.5 -2 0.828 0 1.5 0.895 1.5 2 z" transform="matrix(15.333333,0,0,11.5,414.99999,878.8622)" fill="#1890d0"/></g></clipPath></defs><g><g transform="translate(0,-1004.3622)"><path d="m 25 1006.36 c -12.703 0 -23 10.298 -23 23 0 6.367 2.601 12.12 6.781 16.281 4.085 3.712 9.514 5.969 15.469 5.969 12.703 0 23 -10.297 23 -23 0 -5.954 -2.256 -11.384 -5.969 -15.469 -4.165 -4.181 -9.914 -6.781 -16.281 -6.781 z m 16.281 6.781 c 3.854 4.113 6.219 9.637 6.219 15.719 0 12.703 -10.297 23 -23 23 -6.081 0 -11.606 -2.364 -15.719 -6.219 4.16 4.144 9.883 6.719 16.219 6.719 12.703 0 23 -10.297 23 -23 0 -6.335 -2.575 -12.06 -6.719 -16.219 z" opacity="0.05"/><path d="m 41.28 1013.14 c 3.712 4.085 5.969 9.514 5.969 15.469 0 12.703 -10.297 23 -23 23 -5.954 0 -11.384 -2.256 -15.469 -5.969 4.113 3.854 9.637 6.219 15.719 6.219 12.703 0 23 -10.297 23 -23 0 -6.081 -2.364 -11.606 -6.219 -15.719 z" opacity="0.1"/><path transform="matrix(15.333333,0,0,11.5,415.24999,879.11222)" d="m -24 13 a 1.5 2 0 1 1 -3 0 1.5 2 0 1 1 3 0 z" opacity="0.2"/></g></g><g><g transform="translate(0,-1004.3622)"><path d="m -24 13 c 0 1.105 -0.672 2 -1.5 2 -0.828 0 -1.5 -0.895 -1.5 -2 0 -1.105 0.672 -2 1.5 -2 0.828 0 1.5 0.895 1.5 2 z" transform="matrix(15.333333,0,0,11.5,414.99999,878.8622)" fill="#eee"/></g></g><g><path d="m 47 24 c 0 12.703 -10.297 23 -23 23 -12.703 0 -23 -10.297 -23 -23 0 -12.703 10.297 -23 23 -23 12.703 0 23 10.297 23 23 z" opacity="0.15" fill="url(#1)"/></g><g><g clip-path="url(#clipPath-525459602)"><g transform="translate(0,1)"><g opacity="0.1"><!-- color: #eeeeee --><g><path d="m 32.406 12 c -0.961 0.016 -1.91 0.656 -2.063 1.844 c -0.242 1.902 1.578 1.188 3.03 1.188 c 1.457 0 1.93 3.086 1.566 4.75 c -0.219 0.992 -1.695 2.793 -4.691 3.25 l 0 1.063 c 1.012 0.195 1.75 0.738 1.75 1.406 c 0 0.672 -0.738 1.215 -1.75 1.406 l 0 7.03 c 4.02 -2.754 6.75 -7.836 6.75 -12.656 c 0 -0.809 -0.102 -1.605 -0.25 -2.375 c -0.133 -0.387 -0.242 -0.805 -0.344 -1.156 c -0.176 -0.633 -0.391 -1.16 -0.563 -1.656 c -0.004 -0.016 0.008 -0.043 0 -0.063 c -0.688 -1.5 -1.648 -2.844 -2.844 -3.969 c -0.004 -0.008 -0.023 0.008 -0.031 0 c -0.188 -0.047 -0.367 -0.066 -0.563 -0.063 m -16.12 8.25 c -3.41 0.227 -5.156 2.285 -5.281 2.344 c 0.453 4.273 3.074 8.801 6.75 11.344 l 0 -7.03 c -1.01 -0.191 -1.75 -0.734 -1.75 -1.402 c 0 -0.672 0.742 -1.215 1.75 -1.406 l 0 -3.816 c -0.516 -0.043 -1.012 -0.059 -1.469 -0.027 m 2.969 0.277 l 0 3.563 c 1.012 0.191 1.75 0.738 1.75 1.406 c 0 0.668 -0.742 1.215 -1.75 1.406 l 0 7.938 c 1.25 0.629 2.602 0.992 4 1.094 l 0 -2.031 c -1.01 -0.191 -1.75 -0.734 -1.75 -1.406 c 0 -0.668 0.742 -1.211 1.75 -1.406 l 0 -9.125 c -0.414 -0.156 -0.84 -0.332 -1.281 -0.531 c -0.973 -0.438 -1.875 -0.715 -2.719 -0.906 m 5.5 1.938 l 0 8.625 c 1.012 0.191 1.75 0.738 1.75 1.406 c 0 0.668 -0.742 1.215 -1.75 1.406 l 0 2.031 c 1.41 -0.109 2.746 -0.496 4 -1.125 l 0 -7.906 c -1.01 -0.191 -1.75 -0.738 -1.75 -1.406 c 0 -0.668 0.742 -1.215 1.75 -1.406 l 0 -0.969 c -1.156 -0.004 -2.484 -0.203 -4 -0.656 m 0 0" fill="#000" stroke="none" fill-rule="nonzero" fill-opacity="1"/><path d="m 30.395 16.516 c 0 0.395 -0.324 0.711 -0.727 0.711 c -0.398 0 -0.727 -0.316 -0.727 -0.711 c 0 -0.395 0.328 -0.711 0.727 -0.711 c 0.402 0 0.727 0.316 0.727 0.711 m 0 0" fill="#000" stroke="none" fill-rule="nonzero" fill-opacity="1"/><path d="m 28.938 13.934 c 0 0.277 -0.23 0.504 -0.512 0.504 c -0.285 0 -0.516 -0.227 -0.516 -0.504 c 0 -0.281 0.23 -0.508 0.516 -0.508 c 0.281 0 0.512 0.227 0.512 0.508 m 0 0" fill="#000" stroke="none" fill-rule="nonzero" fill-opacity="1"/></g></g></g></g></g><g><g clip-path="url(#clipPath-531100061)"><!-- color: #eeeeee --><g><path d="m 32.406 12 c -0.961 0.016 -1.91 0.656 -2.063 1.844 c -0.242 1.902 1.578 1.188 3.03 1.188 c 1.457 0 1.93 3.086 1.566 4.75 c -0.219 0.992 -1.695 2.793 -4.691 3.25 l 0 1.063 c 1.012 0.195 1.75 0.738 1.75 1.406 c 0 0.672 -0.738 1.215 -1.75 1.406 l 0 7.03 c 4.02 -2.754 6.75 -7.836 6.75 -12.656 c 0 -0.809 -0.102 -1.605 -0.25 -2.375 c -0.133 -0.387 -0.242 -0.805 -0.344 -1.156 c -0.176 -0.633 -0.391 -1.16 -0.563 -1.656 c -0.004 -0.016 0.008 -0.043 0 -0.063 c -0.688 -1.5 -1.648 -2.844 -2.844 -3.969 c -0.004 -0.008 -0.023 0.008 -0.031 0 c -0.188 -0.047 -0.367 -0.066 -0.563 -0.063 m -16.12 8.25 c -3.41 0.227 -5.156 2.285 -5.281 2.344 c 0.453 4.273 3.074 8.801 6.75 11.344 l 0 -7.03 c -1.01 -0.191 -1.75 -0.734 -1.75 -1.402 c 0 -0.672 0.742 -1.215 1.75 -1.406 l 0 -3.816 c -0.516 -0.043 -1.012 -0.059 -1.469 -0.027 m 2.969 0.277 l 0 3.563 c 1.012 0.191 1.75 0.738 1.75 1.406 c 0 0.668 -0.742 1.215 -1.75 1.406 l 0 7.938 c 1.25 0.629 2.602 0.992 4 1.094 l 0 -2.031 c -1.01 -0.191 -1.75 -0.734 -1.75 -1.406 c 0 -0.668 0.742 -1.211 1.75 -1.406 l 0 -9.125 c -0.414 -0.156 -0.84 -0.332 -1.281 -0.531 c -0.973 -0.438 -1.875 -0.715 -2.719 -0.906 m 5.5 1.938 l 0 8.625 c 1.012 0.191 1.75 0.738 1.75 1.406 c 0 0.668 -0.742 1.215 -1.75 1.406 l 0 2.031 c 1.41 -0.109 2.746 -0.496 4 -1.125 l 0 -7.906 c -1.01 -0.191 -1.75 -0.738 -1.75 -1.406 c 0 -0.668 0.742 -1.215 1.75 -1.406 l 0 -0.969 c -1.156 -0.004 -2.484 -0.203 -4 -0.656 m 0 0" fill="#494e87" stroke="none" fill-rule="nonzero" fill-opacity="1"/><path d="m 30.395 16.516 c 0 0.395 -0.324 0.711 -0.727 0.711 c -0.398 0 -0.727 -0.316 -0.727 -0.711 c 0 -0.395 0.328 -0.711 0.727 -0.711 c 0.402 0 0.727 0.316 0.727 0.711 m 0 0" fill="#434a8e" stroke="none" fill-rule="nonzero" fill-opacity="1"/><path d="m 28.938 13.934 c 0 0.277 -0.23 0.504 -0.512 0.504 c -0.285 0 -0.516 -0.227 -0.516 -0.504 c 0 -0.281 0.23 -0.508 0.516 -0.508 c 0.281 0 0.512 0.227 0.512 0.508 m 0 0" fill="#434a8e" stroke="none" fill-rule="nonzero" fill-opacity="1"/></g></g></g><g><path d="m 40.03 7.531 c 3.712 4.084 5.969 9.514 5.969 15.469 0 12.703 -10.297 23 -23 23 c -5.954 0 -11.384 -2.256 -15.469 -5.969 4.178 4.291 10.01 6.969 16.469 6.969 c 12.703 0 23 -10.298 23 -23 0 -6.462 -2.677 -12.291 -6.969 -16.469 z" opacity="0.1"/></g></svg>
